actions/symbolic/insert-text-symbolic.svg

<?xml version="1.0" encoding="UTF-8" standalone="no"?>
<svg
   xmlns:dc="http://purl.org/dc/elements/1.1/"
   xmlns:cc="http://creativecommons.org/ns#"
   xmlns:rdf="http://www.w3.org/1999/02/22-rdf-syntax-ns#"
   xmlns:svg="http://www.w3.org/2000/svg"
   xmlns="http://www.w3.org/2000/svg"
   xmlns:sodipodi="http://sodipodi.sourceforge.net/DTD/sodipodi-0.dtd"
   xmlns:inkscape="http://www.inkscape.org/namespaces/inkscape"
   viewBox="0 0 16 16"
   id="svg3429"
   version="1.1"
   inkscape:version="0.91 r13725"
   sodipodi:docname="insert-text-symbolic.svg">
  <metadata
     id="metadata3437">
    <rdf:RDF>
      <cc:Work
         rdf:about="">
        <dc:format>image/svg+xml</dc:format>
        <dc:type
           rdf:resource="http://purl.org/dc/dcmitype/StillImage" />
      </cc:Work>
    </rdf:RDF>
  </metadata>
  <sodipodi:namedview
     pagecolor="#ffffff"
     bordercolor="#666666"
     borderopacity="1"
     objecttolerance="10"
     gridtolerance="10"
     guidetolerance="10"
     inkscape:pageopacity="0"
     inkscape:pageshadow="2"
     inkscape:window-width="640"
     inkscape:window-height="480"
     id="namedview3435"
     showgrid="false"
     inkscape:zoom="22.627417"
     inkscape:cx="-0.00292614"
     inkscape:cy="9.3920043"
     inkscape:current-layer="svg3429" />
  <defs
     id="defs3051">
    <style
       type="text/css"
       id="current-color-scheme">
      .ColorScheme-Text {
        color:#bebebe;
      }
      </style>
  </defs>
  <path
     style="color:#bebebe;fill:currentColor;fill-opacity:1;stroke:none"
     class="ColorScheme-Text"
     d="M 5.0644023,2 2.6145,8.8590565 l 1.2257885,0 0.5207926,-1.4702763 2.387943,0 0.5207927,1.4702763 1.3614289,0 L 6.0440283,2 5.0644023,2 Z m 0.4906503,1.9592519 0.8573821,2.4499023 -1.7147641,0 0.857382,-2.4499023 z m 4.3974322,0.6128943 0,0.8573821 2.1434552,0 c 0.183548,0 0.428691,0.2632763 0.428691,0.428691 l 0,0.428691 -2.143455,0 c -0.3940872,0 -0.7440363,0.164596 -0.964555,0.4152945 C 9.1961024,6.9528861 9.0923592,7.2640601 9.0951028,7.5729834 9.0976749,7.8819068 9.2103907,8.19573 9.4300176,8.4437621 9.6496446,8.691777 9.9918044,8.8590565 10.381176,8.8590565 l 2.143455,0 0.428691,0 0.428691,0 0,-0.361708 c 0.0069,-0.040211 0,-0.066983 0,-0.066983 l 0,-0.428691 0,-2.1434552 c 0,-0.7006269 -0.565786,-1.2860731 -1.286073,-1.2860731 l -2.1434552,0 z m 0.4286912,2.5721462 2.143455,0 0,0.8573821 -2.143455,0 c -0.170568,0 -0.243029,-0.047075 -0.308122,-0.1205694 C 10.007979,7.8076275 9.953548,7.6927511 9.9524848,7.5729834 9.9516275,7.4532157 9.9973259,7.3356815 10.059658,7.2648618 10.121989,7.194042 10.200114,7.1442924 10.381176,7.1442924 Z M 5.6655745,10.570472 8.2377207,14 l 2.5721463,-3.429528 -5.1442925,0 z"
     id="path3433"
     inkscape:connector-curvature="0" />
</svg>

<svg xmlns="http://www.w3.org/2000/svg" viewBox="0 0 16 16">
  <path fill="#bebebe" d="M5.064 2l-2.45 6.86H3.84l.521-1.471H6.75l.52 1.47h1.362L6.044 2zm.491 1.96l.857 2.45H4.698zm4.397.612v.858h2.144c.183 0 .429.263.429.428v.429H10.38c-.394 0-.744.165-.964.415s-.325.562-.322.871.115.623.335.87c.22.249.562.416.951.416h3.001v-.362c.007-.04 0-.067 0-.067V5.858c0-.7-.566-1.286-1.286-1.286zm.43 2.572h2.143v.858H10.38c-.17 0-.243-.047-.308-.12a.49.49 0 0 1-.12-.309.48.48 0 0 1 .107-.308c.062-.071.14-.12.321-.12zM5.665 10.57L8.238 14l2.572-3.43H5.666z"/>
</svg>
